!!!!SEGMENT: pl-wtm--r-259-m--005_moniuszko-stanislaw--msza-offertorium.krn
!!!cenid: 18xx:2531
!!!COM: Moniuszko, Stanisław
!!!COM-rismID: pe30008351
!!!CDT: 1819/05/05-1872/06/04
!!!CNT: Polish
!!!OPR: Msza
!!!OTL: Offertorium
!!!OMV: 005
!!!PDT:
!!!AGN: Sacred; Mass
!!!SMS-siglum: PL-Wtm
!!!SMS-shelfmark: R 259/M
!!!SMS-shelfwork: 001-005 M
!!!SMS-variant:
!!!SMS-altvar:
!!!NIFC-rismSourceID: 1001095367
!!!NIFC-islandoraID:
!!!URL-pdf-islandora:
!!!URL-scan:
!!!ONB-nifc: UWAGA: części Mszy: 1. Kyrie, 2. Gloria, 3. Graduale, 4. Credo, 5. Offertorium, 6. Sanctus, 7. Benedictus, 8. Agnus
!!!AIN: 1 bass 1 cello 2 organ 1 viola 2 violn
!!!key:
**kern	**dynam	**kern	**dynam	**kern	**dynam	**kern	**dynam	**kern	**dynam	**kern	**kern	**dynam
*part7	*part7	*part6	*part6	*part5	*part5	*part4	*part4	*part3	*part3	*part2	*part1	*
*staff7	*	*staff6	*	*staff5	*	*staff4	*	*staff3	*	*staff2	*staff1	*
*Ibass	*	*Icello	*	*Iviola	*	*Ivioln	*	*Ivioln	*	*Iorgan	*Iorgan	*
*I"CB.	*	*I"Vcelli	*	*I"Vla.	*	*I"V 2	*	*I"V 1.	*	*I"Organo	*I"Organo	*
*clefF4	*	*clefF4	*	*clefC3	*	*clefG2	*	*clefG2	*	*clefF4	*clefG2	*
*Trd0c0	*	*	*	*	*	*	*	*	*	*	*	*
*k[f#c#g#]	*	*k[f#c#g#]	*	*k[f#c#g#]	*	*k[f#c#g#]	*	*k[f#c#g#]	*	*k[f#c#g#]	*k[f#c#g#]	*
*f#:	*	*f#:	*	*f#:	*	*f#:	*	*f#:	*	*f#:	*f#:	*
*M4/4	*	*M4/4	*	*M4/4	*	*M4/4	*	*M4/4	*	*M4/4	*M4/4	*
*met(c)	*	*met(c)	*	*met(c)	*	*met(c)	*	*met(c)	*	*met(c)	*met(c)	*
=1	=1	=1	=1	=1	=1	=1	=1	=1	=1	=1	=1	=1
*all\right	*	*all\right	*	*all\right	*	*all\right	*	*all\right	*	*all\right	*all\right	*
*	*	*	*	*	*	*	*	*	*	*^	*	*
!	!	!	!	!	!	!	!	!	!	!	!	!LO:TX:a:i:t=dalszy ciąg\npo Credo:color=red	!
!	!LO:DY:color=blue	!LO:TX:a:t=col cb:color=blue	!LO:DY:color=blue	!	!LO:DY:color=blue	!	!LO:DY:color=blue	!LO:TX:a:i:t=non troppo lento.	!LO:DY:color=blue	!LO:TX:a:i:t=(&colon;Manuał & ped&colon;)	!	!LO:TX:i:a:t=non troppo lento	!
8FF#/	p	8FF#/yy	py	8r	p	8r	p	8r	p	(<4FF#/	1r	1r	.
8r	.	8ryy	.	8F#/	.	8A/	.	8c#/	.	.	.	.	.
*	*	*	*	*rep	*	*rep	*	*rep	*	*	*	*	*
8AA/	.	8AA/yy	.	8r	.	8r	.	8r	.	4AA/	.	.	.
8r	.	8ryy	.	8F#/	.	8A/	.	8c#/	.	.	.	.	.
*	*	*	*	*Xrep	*	*Xrep	*	*Xrep	*	*	*	*	*
*	*	*	*	*rep	*	*rep	*	*rep	*	*	*	*	*
8C#/	.	8C#/yy	.	8r	.	8r	.	8r	.	4C#/	.	.	.
8r	.	8ryy	.	8F#/	.	8A/	.	8c#/	.	.	.	.	.
*	*	*	*	*Xrep	*	*Xrep	*	*Xrep	*	*	*	*	*
*	*	*	*	*	*	*	*	*rep	*	*	*	*	*
8E#X\	.	8E#X\yy	.	8r	.	8r	.	8r	.	4E#X/	.	.	.
8r	.	8ryy	.	8G#/	.	8B/	.	8c#/	.	.	.	.	.
*	*	*	*	*	*	*	*	*Xrep	*	*	*	*	*
=2	=2	=2	=2	=2	=2	=2	=2	=2	=2	=2	=2	=2	=2
8F#\	.	8F#\yy	.	8r	.	8r	.	8r	.	4F#/	1r	1r	.
8r	.	8ryy	.	8F#/	.	8A/	.	8c#/	.	.	.	.	.
8C#/	.	8C#/yy	.	8r	.	8r	.	8r	.	4C#/	.	.	.
8r	.	8ryy	.	8F#/	.	8A/	.	8c#/	.	.	.	.	.
8AA/	.	8AA/yy	.	(8A/L	.	(8c#/L	.	(8f#/L	.	4AA/	.	.	.
8r	.	8ryy	.	8F#/J)	.	8A/J)	.	8c#/J)	.	.	.	.	.
8GG#/	.	8GG#/yy	.	8r	.	8r	.	8r	.	4GG#/	.	.	.
8r	.	8ryy	.	(8E#X/	.	(8B/	.	[8c#/	.	.	.	.	.
*	*	*	*	*	*	*	*	*	*	*v	*v	*	*
=3	=3	=3	=3	=3	=3	=3	=3	=3	=3	=3	=3	=3
!	!	!	!	!	!	!	!	!	!	!LO:TX:b:i:t=sempre senza ped	!	!
8FF#/	.	8FF#/yy	.	8F#/L)	.	8A/L)	.	8c#/L]	.	8FF#/)	1ryy	.
8r	.	8ryy	.	8F#/J	.	8A/J	.	8c#/J	.	8r	.	.
8AA/	.	8AA/yy	.	8r	.	8r	.	8r	.	4r	.	.
8r	.	8ryy	.	8F#/	.	8A/	.	8c#/	.	.	.	.
8C#/	.	8C#/yy	.	8r	.	8r	.	8r	.	4r	.	.
8r	.	8ryy	.	8A/	.	8c#/	.	8f#/	.	.	.	.
(4E#X/	.	(y4E#X/yy	.	8r	.	8r	.	8r	.	(4E#X/	.	.
.	.	.	.	8G#/	.	8B/	.	8c#/	.	.	.	.
=4	=4	=4	=4	=4	=4	=4	=4	=4	=4	=4	=4	=4
!	!	!	!	!	!	!	!	!	!	!LO:TX:t=P:problem=takty 4-6 skreślone - partia zapisana na dodatkowym systemie dla lewej ręki organów;	!	!
8F#/)	.	8F#/)yy	.	8r	.	8r	.	8r	.	4F#/	1ryy	.
8r	.	8ryy	.	8F#/	.	8A/	.	8c#/	.	.	.	.
*	*	*	*	*	*	*rep	*	*	*	*	*	*
8C#/	.	8C#/yy	.	8r	.	8r	.	8r	.	4C#/	.	.
8r	.	8ryy	.	8c#\	.	8A/	.	8f#/	.	.	.	.
*	*	*	*	*	*	*Xrep	*	*	*	*	*	*
*	*	*	*	*rep	*	*rep	*	*	*	*	*	*
8A\	.	8A\yy	.	8r	.	8r	.	8r	.	4AA/	.	.
8r	.	8ryy	.	8c#\	.	8A/	.	8a/	.	.	.	.
*	*	*	*	*Xrep	*	*Xrep	*	*	*	*	*	*
*	*	*	*	*rep	*	*rep	*	*	*	*	*	*
8F#\	.	8F#\yy	.	8r	.	8r	.	8r	.	4FF#/	.	.
8r	.	8ryy	.	8c#\	.	8A/	.	8f#/	.	.	.	.
*	*	*	*	*Xrep	*	*Xrep	*	*	*	*	*	*
=5	=5	=5	=5	=5	=5	=5	=5	=5	=5	=5	=5	=5
8E\	.	8E\yy	.	8r	.	8r	.	8r	.	2EE/	1ryy	.
8r	.	8ryy	.	8G#/	.	8c#/	.	8g#/	.	.	.	.
*	*	*	*	*rep	*	*rep	*	*rep	*	*	*	*
8E\	.	8E\yy	.	8r	.	8r	.	8r	.	.	.	.
8r	.	8ryy	.	8G#/	.	8c#/	.	8g#/	.	.	.	.
*	*	*	*	*Xrep	*	*Xrep	*	*Xrep	*	*	*	*
*	*	*	*	*	*	*rep	*	*	*	*	*	*
8F#\	.	8F#\yy	.	8r	.	8r	.	8r	.	2FF#/	.	.
8r	.	8ryy	.	8A/	.	8c#/	.	8a/	.	.	.	.
*	*	*	*	*	*	*Xrep	*	*	*	*	*	*
*	*	*	*	*rep	*	*rep	*	*rep	*	*	*	*
8FF#/	.	8FF#/yy	.	8r	.	8r	.	8r	.	.	.	.
8r	.	8ryy	.	8A/	.	8c#/	.	8a/	.	.	.	.
*	*	*	*	*Xrep	*	*Xrep	*	*Xrep	*	*	*	*
=6	=6	=6	=6	=6	=6	=6	=6	=6	=6	=6	=6	=6
8GG#/	.	8GG#/yy	.	8r	.	8r	.	8r	.	2GG#/	1r	.
8r	.	8ryy	.	8B/	.	8d/	.	8e/	.	.	.	.
*	*	*	*	*	*	*rep	*	*	*	*	*	*
8G#\	.	8G#\yy	.	8r	.	8r	.	8r	.	.	.	.
8r	.	8ryy	.	8e\	.	8d/	.	8b/	.	.	.	.
*	*	*	*	*	*	*Xrep	*	*	*	*	*	*
*	*	*	*	*rep	*	*	*	*	*	*	*	*
8A\	.	8A\yy	.	8r	.	8r	.	8r	.	8AA/)	.	.
8r	.	8ryy	.	8e\	.	8c#/	.	8a/	.	8r	.	.
*	*	*	*	*Xrep	*	*rep	*	*	*	*	*	*
(4A\	.	(y4A\yy	.	8r	.	8r	.	8r	.	4A\	.	.
.	.	.	.	8A/	.	8c#/	.	8e/	.	.	.	.
*	*	*	*	*	*	*Xrep	*	*	*	*	*	*
!!LO:PB:g=original
=7	=7	=7	=7	=7	=7	=7	=7	=7	=7	=7	=7	=7
!LO:TX:t=P:problem=brak dokończenia łuku	!	!LO:TX:t=P:problem=brak dokończenia łuku	!	!	!	!	!	!	!	!	!	!
8D\)	.	8D\)yy	.	8r	.	8r	.	8r	.	[2D/	1r	.
8r	.	8ryy	.	8A/	.	8d/	.	8f#/	.	.	.	.
*rep	*	*repy	*	*	*	*	*	*rep	*	*	*	*
8D\	.	8D\yy	.	8r	.	8r	.	8r	.	.	.	.
8r	.	8ryy	.	8G#/	.	8B/	.	8f#/	.	.	.	.
*Xrep	*	*Xrep	*	*	*	*	*	*Xrep	*	*	*	*
*rep	*	*repy	*	*	*	*	*	*rep	*	*	*	*
8D\	.	8D\yy	.	8r	.	8r	.	8r	.	8D/]	.	.
8r	.	8ryy	.	8F#/	.	8A/	.	8f#/	.	8r	.	.
*Xrep	*	*Xrep	*	*	*	*	*	*Xrep	*	*	*	*
*rep	*	*repy	*	*	*	*	*	*rep	*	*	*	*
8D\	.	8D\yy	.	8r	.	8r	.	8r	.	(4D/	.	.
8r	.	8ryy	.	8F#/	.	8B/	.	8f#/	.	.	.	.
*Xrep	*	*Xrep	*	*	*	*	*	*Xrep	*	*	*	*
=8	=8	=8	=8	=8	=8	=8	=8	=8	=8	=8	=8	=8
8C#/	.	8C#/yy	.	8r	.	8r	.	8r	.	4C#/	1ryy	.
8r	.	8ryy	.	8G#/	.	8c#/	.	8e#X/	.	.	.	.
*	*	*	*	*	*	*rep	*	*	*	*	*	*
8BB/	.	8BB/yy	.	8r	.	8r	.	8r	.	4BB/	.	.
8r	.	8ryy	.	8c#/	.	8c#/	.	8g#/	.	.	.	.
*	*	*	*	*	*	*Xrep	*	*	*	*	*	*
*	*	*	*	*	*	*rep	*	*	*	*	*	*
8AA/	.	8AA/yy	.	8r	.	8r	.	8r	.	4AA/	.	.
8r	.	8ryy	.	8c#/	.	8c#/	.	8f#/	.	.	.	.
*	*	*	*	*	*	*Xrep	*	*	*	*	*	*
8BB/L	.	8BB/Lyy	.	8r	.	8r	.	8r	.	8BB/L	.	.
8C#/J	.	8C#/Jyy	.	8F#/	.	8A/	.	8f#/	.	8C#/J	.	.
=9	=9	=9	=9	=9	=9	=9	=9	=9	=9	=9	=9	=9
8D/	.	8D/yy	.	8r	.	8r	.	8r	.	2.D/)	1ryy	.
8r	.	8ryy	.	8F#/	.	8A/	.	8f#/	.	.	.	.
*rep	*	*repy	*	*	*	*	*	*	*	*	*	*
8D/	.	8D/yy	.	8r	.	8r	.	8r	.	.	.	.
8r	.	8ryy	.	8f#\	.	8B/	.	8g#/	.	.	.	.
*Xrep	*	*Xrep	*	*	*	*	*	*	*	*	*	*
*rep	*	*repy	*	*rep	*	*	*	*	*	*	*	*
8D/	.	8D/yy	.	8r	.	8r	.	8r	.	.	.	.
8r	.	8ryy	.	8f#\	.	8d/	.	8a/	.	.	.	.
*Xrep	*	*Xrep	*	*Xrep	*	*	*	*	*	*	*	*
8D/L	.	8D/Lyy	.	8r	.	8r	.	8r	.	(8D/L	.	.
8C#/J	.	8C#/Jyy	.	8A\	.	8e/	.	8a/	.	8C#/J	.	.
=10	=10	=10	=10	=10	=10	=10	=10	=10	=10	=10	=10	=10
8BB/	.	8BB/yy	.	8r	.	8r	.	8r	.	4BB/	1ryy	.
8r	.	8ryy	.	8d\	.	8f#/	.	8a/	.	.	.	.
*	*	*	*	*	*	*	*	*rep	*	*	*	*
8F#\	.	8F#\yy	.	8r	.	8r	.	8r	.	4F#/	.	.
8r	.	8ryy	.	8B#X/	.	8d#X/	.	8a/	.	.	.	.
*	*	*	*	*	*	*	*	*Xrep	*	*	*	*
*	*	*	*	*	*	*	*	*rep	*	*	*	*
8E\	.	8E\yy	.	8r	.	8r	.	8r	.	4E/	.	.
8r	.	8ryy	.	8c#/	.	8e/	.	8a/	.	.	.	.
*	*	*	*	*	*	*	*	*Xrep	*	*	*	*
*	*	*	*	*	*	*	*	*rep	*	*	*	*
8AA/	.	8AA/yy	.	8r	.	8r	.	8r	.	4AA/)	.	.
8r	.	8ryy	.	8c#/	.	8e#X/	.	8a/	.	.	.	.
*	*	*	*	*	*	*	*	*Xrep	*	*	*	*
=11	=11	=11	=11	=11	=11	=11	=11	=11	=11	=11	=11	=11
8D/	.	8D/yy	.	8r	.	8r	.	8r	.	4r	1ryy	.
8r	.	8ryy	.	8d\	.	8f#/	.	8a/	.	.	.	.
8D/	.	8D/yy	.	8r	.	8r	.	8r	.	(4D/	.	.
8r	.	8ryy	.	8A/	.	8d/	.	8f#/	.	.	.	.
*	*	*	*	*	*	*	*	*rep	*	*	*	*
8C#/	.	8C#/yy	.	8r	.	8r	.	8r	.	4C#/	.	.
8r	.	8ryy	.	8F#/	.	8A/	.	8f#/	.	.	.	.
*	*	*	*	*	*	*	*	*Xrep	*	*	*	*
*	*	*	*	*	*	*	*	*rep	*	*	*	*
8BB/	.	8BB/yy	.	8r	.	8r	.	8r	.	4BB/	.	.
8r	.	8ryy	.	8d\	.	8B/	.	8f#/	.	.	.	.
*	*	*	*	*	*	*	*	*Xrep	*	*	*	*
=12	=12	=12	=12	=12	=12	=12	=12	=12	=12	=12	=12	=12
8AA#X/	.	8AA#X/yy	.	8r	.	8r	.	8r	.	1AA#X/)	1ryy	.
8r	.	8ryy	.	8c#\	.	8e/	.	8gn/	.	.	.	.
*rep	*	*repy	*	*rep	*	*	*	*	*	*	*	*
8AA#/	.	8AA#/yy	.	8r	.	8r	.	8r	.	.	.	.
8r	.	8ryy	.	8c#\	.	(8e/	.	(8g/	.	.	.	.
*Xrep	*	*Xrep	*	*Xrep	*	*	*	*	*	*	*	*
*rep	*	*repy	*	*rep	*	*	*	*	*	*	*	*
8AA#/	.	8AA#/yy	.	8r	.	8f#/L)	.	8f#/L)	.	.	.	.
8r	.	8ryy	.	8c#\	.	8f#/J	.	8f#/J	.	.	.	.
*Xrep	*	*Xrep	*	*Xrep	*	*	*	*	*	*	*	*
*rep	*	*repy	*	*rep	*	*	*	*	*	*	*	*
8AA#/	.	8AA#/yy	.	8r	.	8r	.	8r	.	.	.	.
8r	.	8ryy	.	8c#\	.	8e/	.	8f#/	.	.	.	.
*Xrep	*	*Xrep	*	*Xrep	*	*	*	*	*	*	*	*
!!LO:PB:g=original
=13	=13	=13	=13	=13	=13	=13	=13	=13	=13	=13	=13	=13
8BB/	.	8BB/yy	.	8r	.	8r	.	8r	.	(4BB/	1r	.
8r	.	8ryy	.	8B/	.	8d/	.	8f#/	.	.	.	.
*	*	*	*	*rep	*	*rep	*	*rep	*	*	*	*
8GG#/	.	8GG#/yy	.	8r	.	8r	.	8r	.	4GG#/	.	.
8r	.	8ryy	.	8B/	.	8d/	.	8f#/	.	.	.	.
*	*	*	*	*Xrep	*	*Xrep	*	*Xrep	*	*	*	*
*	*	*	*	*rep	*	*	*	*	*	*	*	*
8EE#X/	.	8EE#X/yy	.	8r	.	8r	.	8r	.	4EE#X/	.	.
8r	.	8ryy	.	8B/	.	8c#/	.	8g#/	.	.	.	.
*	*	*	*	*Xrep	*	*	*	*	*	*	*	*
*	*	*	*	*	*	*rep	*	*rep	*	*	*	*
8C#/	.	8C#/yy	.	8r	.	8r	.	8r	.	4C#/	.	.
8r	.	8ryy	.	8e#X\	.	8c#/	.	8g#/	.	.	.	.
*	*	*	*	*	*	*Xrep	*	*Xrep	*	*	*clefF4	*
=14	=14	=14	=14	=14	=14	=14	=14	=14	=14	=14	=14	=14
*	*	*	*	*	*	*	*	*	*	*	*^	*
*	*	*	*	*	*	*	*	*rep	*	*	*	*	*
!	!	!	!	!	!	!	!	!	!	!	!LO:TX:a:i:t=(&colon;Pozytyw&colon;)	!	!
!	!	!	!	!	!	!	!	!	!	!	!LO:TX:a:i:t=[[(&colon;Positiw&colon;)]]	!	!LO:DY:rj
8FF#/	.	8FF#/yy	.	8r	.	8r	.	8r	.	2FF#/)	2rAA@	1A\	ppp
8r	.	8ryy	.	8e#X\	.	8c#/	.	8g#/	.	.	.	.	.
*	*	*	*	*	*	*	*	*Xrep	*	*	*	*	*
*	*	*	*	*rep	*	*rep	*	*rep	*	*	*	*	*
8C#/	.	8C#/yy	.	8r	.	8r	.	8r	.	.	.	.	.
8r	.	8ryy	.	8e#\	.	8c#/	.	8g#/	.	.	.	.	.
*	*	*	*	*Xrep	*	*Xrep	*	*Xrep	*	*	*	*	*
*	*	*	*	*	*	*rep	*	*	*	*	*	*	*
!	!	!	!	!	!	!	!	!	!	!LO:TX:a:i:t=(&colon;Manuał&colon;)	!	!	!
8F#\	.	8F#\yy	.	8r	.	8r	.	8r	.	4r	4r@	.	.
8r	.	8ryy	.	8f#\	.	8c#/	.	8a/	.	.	.	.	.
*	*	*	*	*rep	*	*Xrep	*	*rep	*	*	*	*	*
(4F#\	.	(y4F#\yy	.	8r	.	8r	.	8r	.	(4F#/	4A\@	.	.
.	.	.	.	8f#\	.	[8a/	.	(8a/	.	.	.	.	.
*	*	*	*	*Xrep	*	*	*	*Xrep	*	*	*	*	*
*	*	*	*	*	*	*	*	*	*	*	*v	*v	*
=15	=15	=15	=15	=15	=15	=15	=15	=15	=15	=15	=15	=15
*	*	*	*	*	*	*	*	*	*	*	*2\right	*
8E\)	.	8E\)yy	.	8e\L	.	8a/L]	.	8b/L)	.	4E/)	(2B\ 2A\	.
8r	.	8ryy	.	8e\J	.	8a/J	.	8b/J	.	.	.	.
*rep	*	*repy	*	*	*	*	*	*	*	*	*	*
8E\	.	8E\yy	.	8r	.	8r	.	8r	.	4r	.	.
8r	.	8ryy	.	8e\	.	(8a/	.	[8b/	.	.	.	.
*Xrep	*	*Xrep	*	*	*	*	*	*	*	*	*	*
*rep	*	*repy	*	*rep	*	*	*	*	*	*	*	*
8E\	.	8E\yy	.	8r	.	8g#/)	.	8b/]	.	2r	4B\ 4G#\)	.
8r	.	8ryy	.	8e\	.	(8g#/L	.	(8b\L	.	.	.	.
*Xrep	*	*Xrep	*	*Xrep	*	*	*	*	*	*	*	*
*rep	*	*repy	*	*rep	*	*	*	*	*	*	*	*
8E\	.	8E\yy	.	8r	.	8a/)	.	8cc#\)	.	.	8c#\L 8A\	.
8r	.	8ryy	.	8e\	.	8b/J	.	8dd\J	.	.	8d\J 8B\	.
*Xrep	*	*Xrep	*	*Xrep	*	*	*	*	*	*	*	*
=16	=16	=16	=16	=16	=16	=16	=16	=16	=16	=16	=16	=16
8AA/	.	8AA/yy	.	8r	.	8r	.	8r	.	2r	2d\ 2B\	.
8r	.	8ryy	.	8e\	.	8g#/	.	8b\	.	.	.	.
*	*	*	*	*	*	*	*	*rep	*	*	*	*
8E\	.	8E\yy	.	8r	.	8r	.	8r	.	.	.	.
8r	.	8ryy	.	8d\	.	8e/	.	8b\	.	.	.	.
*	*	*	*	*	*	*	*	*Xrep	*	*	*	*
8A\	.	8A\yy	.	8r	.	8r	.	8r	.	4r	(2c#\ 2A\	.
8r	.	8ryy	.	8c#\	.	8e/	.	8cc#\	.	.	.	.
*	*	*	*	*	*	*	*	*rep	*	*	*	*
(4AA/	.	(y4AA/yy	.	8r	.	8r	.	8r	.	(4AA/	.	.
.	.	.	.	[8e\	.	(8a/	.	[8cc#\	.	.	.	.
*	*	*	*	*	*	*	*	*Xrep	*	*	*	*
=17	=17	=17	=17	=17	=17	=17	=17	=17	=17	=17	=17	=17
8GGn/)	.	8GGn/)yy	.	8e\L]	.	8b/L)	.	8cc#\L]	.	8GGn/)	2c#\ 2B\)	.
8r	.	8ryy	.	8e\J	.	8b/J	.	8cc#\J	.	8r	.	.
(4Gn\	.	(y4Gn\yy	.	8r	.	8r	.	8r	.	(4Gn/	.	.
.	.	.	.	8e\	.	(8b/	.	8cc#\	.	.	.	.
8F#\)	.	8F#\)yy	.	8r	.	8a#X/L)	.	8r	.	8F#/)	4c#\ 4A#X\	.
8r	.	8ryy	.	8f#\	.	(8a#/	.	(8cc#\L	.	8r	.	.
(4FF#/	.	(y4FF#/yy	.	8r	.	8b/)	.	8dd\)	.	(4FF#/	8d\L 8B\	.
.	.	.	.	8f#\	.	8cc#/J	.	8ee\J	.	.	8e\J 8c#\	.
=18	=18	=18	=18	=18	=18	=18	=18	=18	=18	=18	=18	=18
*	*	*	*	*	*	*	*	*	*	*	*^	*
!	!	!	!	!	!	!	!	!	!	!	!LO:S:s=2:note:problem=note-level slur	!	!
8BB/)	.	8BB/)yy	.	8r	.	8r	.	8r	.	8BB/)	((>2e\ 2c#\	2ryy	.
8r	.	8ryy	.	8f#\	.	8an/	.	8cc#\	.	8r	.	.	.
*	*	*	*	*	*	*rep	*	*rep	*	*	*	*	*
8F#\	.	8F#\yy	.	8r	.	8r	.	8r	.	4r	.	.	.
8r	.	8ryy	.	8e\	.	8a/	.	8cc#\	.	.	.	.	.
*	*	*	*	*	*	*Xrep	*	*Xrep	*	*	*	*	*
8B\	.	8B\yy	.	8r	.	8r	.	8r	.	(4B/	4d\ 4B\))	4ryy	.
8r	.	8ryy	.	8d\	.	8b/	.	8dd\	.	.	.	.	.
*	*	*	*	*	*	*	*	*	*	*	*clefG2	*	*
8An\	.	8An\yy	.	8r	.	8r	.	8r	.	4A/	8.f#/L	4d\	.
8r	.	8ryy	.	8f#\	.	8d/	.	8b\	.	.	.	.	.
.	.	.	.	.	.	.	.	.	.	.	16e/Jk	.	.
!!LO:PB:g=original
=19	=19	=19	=19	=19	=19	=19	=19	=19	=19	=19	=19	=19	=19
8G#\	.	8G#\yy	.	8r	.	8r	.	8r	.	4G#/	2b/	2.e\	.
8r	.	8ryy	.	8e\	.	8d/	.	8b/	.	.	.	.	.
*	*	*	*	*rep	*	*rep	*	*	*	*	*	*	*
8E\	.	8E\yy	.	8r	.	8r	.	8r	.	4E/	.	.	.
8r	.	8ryy	.	8e\	.	8d/	.	8e/	.	.	.	.	.
*	*	*	*	*Xrep	*	*Xrep	*	*	*	*	*	*	*
*	*	*	*	*rep	*	*	*	*	*	*	*	*	*
8A\	.	8A\yy	.	8r	.	8r	.	8r	.	4A/	2cc#/	.	.
8r	.	8ryy	.	8e\	.	8c#/	.	8cc#\	.	.	.	.	.
*	*	*	*	*Xrep	*	*rep	*	*	*	*	*	*	*
*	*	*	*	*rep	*	*	*	*	*	*	*	*	*
8G#\	.	8G#\yy	.	8r	.	8r	.	8r	.	4G#/	.	8.e\L	.
8r	.	8ryy	.	8e\	.	8c#/	.	8cc#\	.	.	.	.	.
.	.	.	.	.	.	.	.	.	.	.	.	16d\Jk	.
*	*	*	*	*Xrep	*	*Xrep	*	*	*	*	*	*	*
=20	=20	=20	=20	=20	=20	=20	=20	=20	=20	=20	=20	=20	=20
8F#\	.	8F#\yy	.	8r	.	8r	.	8r	.	4F#/	4cc#/	2.d\	.
8r	.	8ryy	.	8a\	.	8d/	.	8cc#\	.	.	.	.	.
*	*	*	*	*	*	*rep	*	*	*	*	*	*	*
8D\	.	8D\yy	.	8r	.	8r	.	8r	.	4D/	8.b/L	.	.
8r	.	8ryy	.	8f#\	.	8d/	.	8f#/	.	.	.	.	.
.	.	.	.	.	.	.	.	.	.	.	16a#X/Jk	.	.
*	*	*	*	*	*	*Xrep	*	*	*	*	*	*	*
*	*	*	*	*	*	*rep	*	*	*	*	*	*	*
8Gn\	.	8Gn\yy	.	8r	.	8r	.	8r	.	4Gn/	2b/	.	.
8r	.	8ryy	.	8gn\	.	8d/	.	8b\	.	.	.	.	.
*	*	*	*	*	*	*Xrep	*	*rep	*	*	*	*	*
*	*	*	*	*	*	*rep	*	*	*	*	*	*	*
!	!	!	!	!	!	!	!	!	!	!	!	!LO:TX:t=P:problem=takty od 4. miary 20-22 skreślone - partia zapisana na dodatkowym systemie dla prawej ręki organów	!
8F#\	.	8F#\yy	.	8r	.	8r	.	8r	.	4F#/	.	8.d\L	.
8r	.	8ryy	.	8B/	.	8d/	.	8b\	.	.	.	.	.
.	.	.	.	.	.	.	.	.	.	.	.	16c#\Jk	.
*	*	*	*	*	*	*Xrep	*	*Xrep	*	*	*	*	*
=21	=21	=21	=21	=21	=21	=21	=21	=21	=21	=21	=21	=21	=21
8E#X\	.	8E#X\yy	.	8r	.	8r	.	8r	.	4E#X/	4b/	2c#\	.
8r	.	8ryy	.	8c#/	.	8g#/	.	8b/	.	.	.	.	.
*	*	*	*	*rep	*	*	*	*	*	*	*	*	*
8F#\	.	8F#\yy	.	8r	.	8r	.	8r	.	4F#/	4a/	.	.
8r	.	8ryy	.	8c#/	.	8f#/	.	8a/	.	.	.	.	.
*	*	*	*	*Xrep	*	*rep	*	*	*	*	*	*	*
8D\	.	8D\yy	.	8r	.	8r	.	8r	.	8D/)	8g#/L	4B\	.
8r	.	8ryy	.	8a\	.	8f#/	.	8b\	.	8r	8a/	.	.
*	*	*	*	*	*	*Xrep	*	*	*	*	*	*	*
*	*	*	*	*	*	*rep	*	*	*	*	*	*	*
8D\	.	8D\yy	.	8r	.	8r	.	8r	.	(4D/	8g#/	4B#X\	.
8r	.	8ryy	.	8g#\	.	8f#/	.	8b#X\	.	.	8f#/J	.	.
*	*	*	*	*	*	*Xrep	*	*	*	*	*	*	*
=22	=22	=22	=22	=22	=22	=22	=22	=22	=22	=22	=22	=22	=22
8C#/	.	8C#/yy	.	8r	.	8r	.	8r	.	4C#/	4e#X/	2c#\	.
8r	.	8ryy	.	8g#\	.	8e#X/	.	8cc#\	.	.	.	.	.
8E#X\	.	8E#X\yy	.	8r	.	8r	.	8r	.	4E#X/	4g#/	.	.
8r	.	8ryy	.	8c#\	.	8c#/	.	8g#/	.	.	.	.	.
8F#\	.	8F#\yy	.	8r	.	8r	.	8r	.	8F#/)	4a/	2r	.
8r	.	8ryy	.	8c#\	.	8f#/	.	8a/	.	8r	.	.	.
8C#/	.	8C#/yy	.	8r	.	8r	.	8r	.	(4C#/	4ryy	.	.
8r	.	8ryy	.	8en\	.	[>8a/	.	(8a/	.	.	.	.	.
*	*	*	*	*	*	*	*	*	*	*	*v	*v	*
=23	=23	=23	=23	=23	=23	=23	=23	=23	=23	=23	=23	=23
8D\	.	8D\yy	.	8r	.	8a/L]	.	8b/L)	.	4D/	8r	.
8r	.	8ryy	.	8f#\	.	8a/J	.	8b/J	.	.	(4f#/	.
8D#X\	.	8D#X\yy	.	8r	.	8r	.	8r	.	4D#X/	.	.
8r	.	8ryy	.	8fn\	.	8a/	.	8b\	.	.	4fn/	.
8E\	.	8E\yy	.	8r	.	8r	.	8r	.	4E/	.	.
8r	.	8ryy	.	8e\	.	(8g#/L	.	(8b\L	.	.	4e/	.
8E#X\	.	8E#X\yy	.	8r	.	8a/)	.	8cc#\)	.	4E#X/	.	.
8r	.	8ryy	.	8d\	.	8b/J	.	8dd\J	.	.	[8d/	.
=24	=24	=24	=24	=24	=24	=24	=24	=24	=24	=24	=24	=24
8F#\	.	8F#\yy	.	8r	.	8r	.	8r	.	4F#/	8d/]	.
8r	.	8ryy	.	8d\	.	8a/	.	8dd\	.	.	4d/	.
8G#\	.	8G#\yy	.	8r	.	8r	.	8r	.	4G#/	.	.
8r	.	8ryy	.	8d\	.	8e/	.	8b\	.	.	4e/)	.
8A\	.	8A\yy	.	8r	.	8r	.	8r	.	4A/)	.	.
8r	.	8ryy	.	8c#\	.	8e/	.	8cc#\	.	.	4e/	.
!	!	!	!	!	!	!	!	!	!	!LO:TX:t=P:problem=brak początku łuku	!	!
8E\	.	8E\yy	.	8r	.	8r	.	8r	.	(4E/	.	.
8r	.	8ryy	.	8d\	.	8a/	.	8cc#\	.	.	(8e/	.
!!LO:PB:g=original
=25	=25	=25	=25	=25	=25	=25	=25	=25	=25	=25	=25	=25
*	*	*	*	*	*	*	*	*	*	*^	*	*
!	!	!	!	!	!	!	!	!	!	!	!	!LO:TX:t=P:problem=brak dokończenia łuku	!
8E#X\	.	8E#X\yy	.	8r	.	8r	.	8r	.	4E#X/	1r@	8g#/)	.
8r	.	8ryy	.	8g#\	.	8b/	.	8cc#\	.	.	.	4g#/	.
8F#\	.	8F#\yy	.	8r	.	8r	.	8r	.	4F#/	.	.	.
8r	.	8ryy	.	8f#\	.	8a/	.	8cc#\	.	.	.	4f#/	.
8Gn\	.	8Gn\yy	.	8r	.	8r	.	8r	.	4Gn/	.	.	.
8r	.	8ryy	.	8e#X\	.	8b/	.	(8cc#\L	.	.	.	4e#X/	.
8G#X\	.	8G#X\yy	.	8r	.	8r	.	8dd\)	.	4G#X/	.	.	.
8r	.	8ryy	.	8en\	.	8b/	.	8ee\J	.	.	.	[8en/	.
=26	=26	=26	=26	=26	=26	=26	=26	=26	=26	=26	=26	=26	=26
*	*	*	*	*	*	*	*	*	*	*	*	*^	*
8A\	.	8A\yy	.	8r	.	8r	.	8r	.	4A/	1r@	8e/]	8ryy	.
8r	.	8ryy	.	8gn\	.	8cc#\	.	8ee\	.	.	.	4f#/	4ryy	.
*	*	*	*	*rep	*	*	*	*	*	*	*	*	*	*
8A#X\	.	8A#X\yy	.	8r	.	8r	.	8r	.	4A#X/	.	.	.	.
8r	.	8ryy	.	8g\	.	8e/	.	8cc#\	.	.	.	8c#/	8ryy	.
*	*	*	*	*Xrep	*	*	*	*	*	*	*	*	*	*
8B\	.	8B\yy	.	8r	.	8r	.	8r	.	4B/	.	8d/	8ryy	.
8r	.	8ryy	.	8f#\	.	8d/	.	8dd\	.	.	.	8r	8ryy	.
*	*	*	*	*rep	*	*	*	*	*	*	*	*	*	*
!	!	!	!	!	!	!	!	!	!	!	!	!LO:TX:t=P:problem=t4. miara t. 26 skreślona - zapisana na dodatkowym systemie dla prawej ręki organów	!	!
8An\	.	8An\yy	.	8r	.	8r	.	8r	.	4An/	.	8.ff#/L	4dd\	.
8r	.	8ryy	.	8f#\	.	8b\	.	8dd\	.	.	.	.	.	.
.	.	.	.	.	.	.	.	.	.	.	.	16ee/Jk	.	.
*	*	*	*	*Xrep	*	*	*	*	*	*	*	*	*	*
=27	=27	=27	=27	=27	=27	=27	=27	=27	=27	=27	=27	=27	=27	=27
!	!	!	!	!	!	!LO:TX:a:t=(x)	!	!	!	!	!	!	!	!
!	!	!	!	!	!	!LO:TX:t=P:problem=t. 27 skreślony - zapisany na dole strony z odnośnikiem (x)	!	!	!	!	!	!	!	!
8G#\	.	8G#\yy	.	8r	.	8r	.	8r	.	4G#/	1r@	2.ee/	4dd\	.
8r	.	8ryy	.	8e\	.	8e/	.	8b\	.	.	.	.	.	.
*	*	*	*	*rep	*	*	*	*	*	*	*	*	*	*
8E\	.	8E\yy	.	8r	.	8r	.	8r	.	4E/	.	.	8.cc#\L	.
8r	.	8ryy	.	8e\	.	8g#/	.	8dd\	.	.	.	.	.	.
.	.	.	.	.	.	.	.	.	.	.	.	.	16b#X\Jk	.
*	*	*	*	*Xrep	*	*	*	*	*	*	*	*	*	*
*	*	*	*	*rep	*	*	*	*	*	*	*	*	*	*
8A\	.	8A\yy	.	8r	.	8r	.	8r	.	4A/	.	.	2cc#\	.
8r	.	8ryy	.	8e\	.	8a/	.	8cc#\	.	.	.	.	.	.
*	*	*	*	*Xrep	*	*	*	*	*	*	*	*	*	*
*	*	*	*	*rep	*	*	*	*	*	*	*	*	*	*
8G#\	.	8G#\yy	.	8r	.	8r	.	8r	.	4G#/	.	8.ee/L	.	.
8r	.	8ryy	.	8e\	.	8A/	.	8cc#\	.	.	.	.	.	.
.	.	.	.	.	.	.	.	.	.	.	.	16dd/Jk	.	.
*	*	*	*	*Xrep	*	*	*	*	*	*	*	*	*	*
=28	=28	=28	=28	=28	=28	=28	=28	=28	=28	=28	=28	=28	=28	=28
8F#\	.	8F#\yy	.	8r	.	8r	.	8r	.	4F#/	1r@	2.dd/	4cc#\	.
8r	.	8ryy	.	8d\	.	8d/	.	8a/	.	.	.	.	.	.
*	*	*	*	*rep	*	*	*	*	*	*	*	*	*	*
8Dn\	.	8Dn\yy	.	8r	.	8r	.	8r	.	4Dn/	.	.	8.b\L	.
8r	.	8ryy	.	8d\	.	8f#/	.	8dd\	.	.	.	.	.	.
.	.	.	.	.	.	.	.	.	.	.	.	.	16a#X\Jk	.
*	*	*	*	*Xrep	*	*	*	*	*	*	*	*	*	*
*	*	*	*	*rep	*	*	*	*	*	*	*	*	*	*
8Gn\	.	8Gn\yy	.	8r	.	8r	.	8r	.	4Gn/	.	.	2b\	.
8r	.	8ryy	.	8d\	.	8gn/	.	8b\	.	.	.	.	.	.
*	*	*	*	*Xrep	*	*	*	*	*	*	*	*	*	*
*	*	*	*	*rep	*	*	*	*	*	*	*	*	*	*
8F#\	.	8F#\yy	.	8r	.	8r	.	8r	.	4F#/	.	8.dd/L	.	.
8r	.	8ryy	.	8d\	.	8B/	.	8b\	.	.	.	.	.	.
.	.	.	.	.	.	.	.	.	.	.	.	16cc#/Jk	.	.
*	*	*	*	*Xrep	*	*	*	*	*	*	*	*	*	*
=29	=29	=29	=29	=29	=29	=29	=29	=29	=29	=29	=29	=29	=29	=29
8E#X\	.	8E#X\yy	.	8r	.	8r	.	8r	.	4E#X/	1r@	8cc#/L	4g#\	.
8r	.	8ryy	.	8g#X\	.	8c#/	.	8b\	.	.	.	8b/J	.	.
*	*	*	*	*	*	*rep	*	*	*	*	*	*	*	*
8F#\	.	8F#\yy	.	8r	.	8r	.	8r	.	4F#/	.	2a/	4f#\	.
8r	.	8ryy	.	8f#\	.	8c#/	.	8a\	.	.	.	.	.	.
*	*	*	*	*	*	*Xrep	*	*	*	*	*	*	*	*
8D\	.	8D\yy	.	8r	.	8r	.	8r	.	4D/	.	.	4e\	.
8r	.	8ryy	.	8f#\	.	8a/	.	8b\	.	.	.	.	.	.
8AA/	.	8AA/	.	8r	.	8r	.	8r	.	4AA/	.	4cc#/	4g#\	.
8r	.	8r	.	(8e\	.	(8gn/	.	(8cc#\	.	.	.	.	.	.
*	*	*	*	*	*	*	*	*	*	*v	*v	*	*	*
=30	=30	=30	=30	=30	=30	=30	=30	=30	=30	=30	=30	=30	=30
*	*	*	*	*	*	*	*	*	*	*	*	*^	*
8D\	.	8DD/	.	8d\L)	.	8f#/L)	.	8dd\L)	.	4DD/	4.dd/	4f#\	4ryy	.
8r	.	8r	.	8a\J	.	(8f#/J	.	8dd\J	.	.	.	.	.	.
8GGn/	.	8GGn/	.	8r	.	8fn/L)	.	8r	.	4GGn/	.	4fn\	4ryy	.
8r	.	8r	.	(8b\	.	(8f/J	.	(8dd#X\	.	.	8dd#X/	.	.	.
!	!	!	!	!	!	!	!	!LO:TX:t=P:problem=mixed beam	!	!	!	!	!	!
8Cn/	.	8CCn/	.	8ccn\L)	.	8e/L)	.	8ee\L)	.	4CCn/)	4ee/	4e\	4ryy	.
8r	.	8r	.	8e\J	.	8e/J	.	8g#/J	.	.	.	.	.	.
8B\	.	8B\	.	8r	.	8r	.	8r	.	(<4B/	8.gg#/L	[4ee\	8.g#\L	.
8r	.	8r	.	8e\	.	8gn/	.	8ee\	.	.	.	.	.	.
.	.	.	.	.	.	.	.	.	.	.	16ff#/Jk	.	16f\Jk	.
!!LO:PB:g=original
=31	=31	=31	=31	=31	=31	=31	=31	=31	=31	=31	=31	=31	=31	=31
*	*	*	*	*	*	*	*	*	*	*^	*	*	*	*
!	!	!	!	!	!	!	!	!	!	!	!	!LO:TX:t=P::problem=brak dokończenia lligatury&colon; Alt	!	!	!
8A#X\	.	8A#X\yy	.	8r	.	8r	.	8r	.	4A#X/	1r	2.ff#/	4ee\]	2f#\	.
8r	.	8ryy	.	8f#\	.	8en/	.	8cc#X\	.	.	.	.	.	.	.
*	*	*	*	*rep	*	*rep	*	*	*	*	*	*	*	*	*
8F#\	.	8F#\yy	.	8r	.	8r	.	8r	.	4F#/	.	.	8.dd\L	.	.
8r	.	8ryy	.	8f#\	.	8e/	.	8a#X/	.	.	.	.	.	.	.
.	.	.	.	.	.	.	.	.	.	.	.	.	16cc#\Jk	.	.
*	*	*	*	*Xrep	*	*Xrep	*	*	*	*	*	*	*	*	*
*	*	*	*	*rep	*	*	*	*	*	*	*	*	*	*	*
8B\	.	8B\yy	.	8r	.	8r	.	8r	.	8B/)	.	.	2dd\	2r	.
8r	.	8ryy	.	8f#\	.	8d/	.	8f#/	.	8r	.	.	.	.	.
*	*	*	*	*Xrep	*	*	*	*	*	*	*	*	*	*	*
*	*	*	*	*rep	*	*rep	*	*	*	*	*	*	*	*	*
8.G#\L	.	8.G#\Lyy	.	8r	.	8r	.	8r	.	8.G#/L	.	8.ee#X/L	.	.	.
.	.	.	.	8f#\	.	8d/	.	8b\	.	.	.	.	.	.	.
16F#\Jk	.	16F#\Jkyy	.	.	.	.	.	.	.	16F#/Jk	.	16ff#/Jk	.	.	.
*	*	*	*	*Xrep	*	*Xrep	*	*	*	*	*	*	*	*	*
*	*	*	*	*	*	*	*	*	*	*	*	*	*v	*v	*
=32	=32	=32	=32	=32	=32	=32	=32	=32	=32	=32	=32	=32	=32	=32
8E#X\	.	8E#X\yy	.	8r	.	8r	.	8r	.	(<4E#X/	1r	2gg#/	(>4cc#\	.
8r	.	8ryy	.	8g#\	.	8d/	.	8b\	.	.	.	.	.	.
8G#\	.	8G#\yy	.	8r	.	8r	.	8r	.	4G#/	.	.	8cc#\L	.
8r	.	8ryy	.	[8g#\	.	(8f#/	.	(8b#X\	.	.	.	.	8b#X\J	.
8c#\	.	8c#\yy	.	8g#\]	.	8e#X/L)	.	8cc#\L)	.	8c#/)	.	4r	8bn\L	.
8r	.	8ryy	.	4c#/	.	(8e#/	.	(8g#\	.	8r	.	.	16cc#\L	.
.	.	.	.	.	.	.	.	.	.	.	.	.	16b\JJ	.
(4C#/	.	(y4C#/yy	.	.	.	8f#/)	.	8a\)	.	4r	.	4cc#/	8a\L)	.
.	.	.	.	8c#/	.	8g#/J	.	8bn\J	.	.	.	.	8g#\J	.
=33	=33	=33	=33	=33	=33	=33	=33	=33	=33	=33	=33	=33	=33	=33
!	!	!	!	!	!	!	!	!	!	!LO:TX:t=P:problem=t. 33 skreślony - zapisany na dodatkowym systemie dla lewej ręki organów	!	!	!	!
4F#\	.	4F#\yy	.	[2f#\	.	4a/	.	(8cc#\L	.	4F#/	1r	4.cc#/	4a\	.
.	.	.	.	.	.	.	.	8ff#\	.	.	.	.	.	.
8AA/L	.	8AA/Lyy	.	.	.	8f#/L	.	8cc#\)	.	8AA/L	.	.	8f#\L	.
8BB/J	.	8BB/Jyy	.	.	.	8g#/J	.	8b\J|	.	8BB/J	.	8b/@	8g#\J	.
8C#/)	.	8C#/)yy	.	8f#\L]	.	4f#/	.	8a/L	.	2C#/	.	4a/ 4f#/	4ryy	.
8r	.	8ryy	.	(8d^\	.	.	.	8a/J	.	.	.	.	.	.
(4C#/	.	(y4C#/yy	.	8c#\	.	4e#X/	.	8r	.	.	.	4g#/ 4e#X/	4ryy	.
*	*	*	*	*	*	*	*	*	*	*ped	*	*	*	*
!	!	!	!	!LO:TX:t=P:problem=dodatkowa nuta 8c# - skreślona czerwoną kredką	!	!	!	!	!	!	!	!	!	!
.	.	.	.	8B\J)	.	.	.	8g#/	.	.	.	.	.	.
=34	=34	=34	=34	=34	=34	=34	=34	=34	=34	=34	=34	=34	=34	=34
!	!	!	!	!	!	!	!	!	!	!	!	!LO:TX:a:i:t=(&colon;Manuał&colon;)	!	!
8FF#/)	.	8FF#/)yy	.	8A/L	.	8f#/L	.	8f#/L	.	1F#/	(4FF#\	(1f#/	4A\	.
8r	.	8ryy	.	(8A^/	.	8A/J	.	8f#/J	.	.	.	.	.	.
8GGn/	.	8GGn/yy	.	8B/)	.	8r	.	8r	.	.	4GGn\	.	4B\	.
8r	.	8ryy	.	(8B^/J	.	8A/	.	8f#/	.	.	.	.	.	.
8GG#X/	.	8GG#X/yy	.	8B#X/L)	.	8r	.	8r	.	.	4GG#X\	.	4B#X\	.
8r	.	8ryy	.	(8B#^/	.	8B#X/	.	8f#/	.	.	.	.	.	.
8AA/	.	8AA/yy	.	8c#/)	.	8r	.	8r	.	.	4AA\	.	4c#\	.
8r	.	8ryy	.	(8c#^/J	.	8c#/	.	8f#/	.	.	.	.	.	.
*	*	*	*	*	*	*	*	*	*	*	*	*v	*v	*
=35	=35	=35	=35	=35	=35	=35	=35	=35	=35	=35	=35	=35	=35
8AA#X/	.	8AA#X/yy	.	8e\L)	.	8e/L	.	8gn/L	.	1ryy	4AA#X\	4gn/ 4e/	.
8r	.	8ryy	.	(8c#^\	.	8e/J	.	8g/J	.	.	.	.	.
8BB/	.	8BB/yy	.	8d\)	.	8r	.	8r	.	.	4BB\	4g#X/ 4d/	.
8r	.	8ryy	.	(8d^\J	.	8e#X/	.	(8g#X/	.	.	.	.	.
8BB#X/	.	8BB#X/yy	.	8f#\L)	.	8f#/L	.	8a/L)	.	.	4BB#X\	4a/ 4f#/	.
8r	.	8ryy	.	(8d#X^\	.	8f#/J	.	8a/J	.	.	.	.	.
8C#/	.	8C#/yy	.	8e\)	.	8r	.	8r	.	.	4C#\	4a#X/ 4e/	.
8r	.	8ryy	.	(8e^\J	.	8gn/	.	(8a#X/	.	.	.	.	.
=36	=36	=36	=36	=36	=36	=36	=36	=36	=36	=36	=36	=36	=36
8D\	.	8D\yy	.	8gn\L)	.	8r	.	8b/L)	.	1ryy	4D\	4b/ 4gn/	.
8r	.	8ryy	.	(8dn^\	.	8gn/	.	8b/J	.	.	.	.	.
8D#X\	.	8D#X\yy	.	8f#\)	.	8r	.	8r	.	.	4D#X\	4b#X/ 4f#/	.
8r	.	8ryy	.	(8f#^\J	.	8a/	.	(8b#X/	.	.	.	.	.
8E\	.	8E\yy	.	8an\L)	.	8r	.	8cc#\L)	.	.	4E\	4cc#/ 4a/	.
8r	.	8ryy	.	(8e^\	.	8a/	.	8cc#\J	.	.	.	.	.
!	!	!	!	!	!	!	!	!	!	!	!	!LO:SIC:v:n=2:s=4g#	!
8E#X\	.	8E#X\yy	.	8g#X\)	.	8r	.	8r	.	.	4E#X\)	4dd/ 4g/	.
8r	.	8ryy	.	(8g#^\J	.	8b/	.	8dd\	.	.	.	.	.
!!LO:PB:g=original
=37	=37	=37	=37	=37	=37	=37	=37	=37	=37	=37	=37	=37	=37
!	!	!	!	!LO:TX:t=P:problem=brak dokończenia łuku	!	!	!	!	!	!	!	!	!
8F#\	.	8F#\yy	.	8a\L)	.	8a/L	.	8cc#\L	.	(2F#/	2F#\	4.cc#/ 4.a/	.
8r	.	8ryy	.	8f#\J	.	8a/J	.	8cc#\J	.	.	.	.	.
8C#/	.	8C#/yy	.	8r	.	8r	.	8r	.	.	.	.	.
8r	.	8ryy	.	8c#\	.	8f#/	.	8a/	.	.	.	8a/ 8f#/	.
8AA/	.	8AA/yy	.	8r	.	8r	.	8r	.	(4AA/)	2r	4f#/ 4c#/)	.
8r	.	8ryy	.	8c#\	.	8c#/	.	8f#/	.	.	.	.	.
8BB/	.	8BB/yy	.	8r	.	8r	.	8r	.	4BB/	.	4g#/ 4f#/	.
8r	.	8ryy	.	8B\	.	8d/	.	8f#/	.	.	.	.	.
=38	=38	=38	=38	=38	=38	=38	=38	=38	=38	=38	=38	=38	=38
*	*	*	*	*^	*	*	*	*	*	*	*^	*	*
8C#/	.	8C#/yy	.	8r	8ryy	.	8r	.	8r	.	4C#/	2.ryy	2r	(4.a/ 4.f#/	.
8r	.	8ryy	.	8c#\	8ryy	.	8f#/	.	8a/	.	.	.	.	.	.
8AA/	.	8AA/yy	.	8r	8ryy	.	8r	.	8r	.	4AA/	.	.	.	.
8r	.	8ryy	.	8A/	8ryy	.	8c#/	.	8f#/	.	.	.	.	8f#/ 8c#/)	.
8FF#/	.	8FF#/yy	.	8r	8ryy	.	8r	.	8r	.	4FF#/)	.	4r	4f#/ 4A/	.
8r	.	8ryy	.	8A/	8r	.	4c#^/	.	4f#^/	.	.	.	.	.	.
!	!	!	!	!	!	!	!	!	!	!	!LO:TX:t=P:problem=przy 4 kolejnych ćwierćnutach niezidentyfikowane znaki czerwoną kredką	!	!	!	!
8F#\	.	8F#\yy	.	8r	8ryy	.	.	.	.	.	4A/ 4F#/	4FF#\	4FF#\	(4f#/ 4c#/	.
8r	.	8ryy	.	8c#\	8ryy	.	(8A/	.	(8f#/	.	.	.	.	.	.
*	*	*	*	*v	*v	*	*	*	*	*	*v	*v	*	*	*
=39	=39	=39	=39	=39	=39	=39	=39	=39	=39	=39	=39	=39	=39
8E\	.	8E\yy	.	8r	.	8e/L)	.	8g#X/L)	.	4B/ 4E/ 4EE/	4EE\	4g#X/ 4e/	.
8r	.	8ryy	.	8e\	.	(8B/J	.	(8g#/J	.	.	.	.	.
8A\	.	8A\yy	.	8r	.	8c#/L)	<	8a/L)	<	4c#/ 4A/ 4AA/	4AA\	4a/ 4e/	.
8r	.	8ryy	.	8e\	.	(8c#/J	.	(8a/J	.	.	.	.	.
8Gn\	.	8Gn\yy	.	8r	.	8d/L)	.	8b/L)	.	4d/ 4Gn/ 4GGny/	4GG\	4b/ 4gn/	.
8r	.	8ryy	.	8gn\	.	(8d/J	.	(8b/J	.	.	.	.	.
8F#\	.	8F#\yy	.	8r	.	8e/L)	.	8cc#/L)	.	4e/ 4F#/	4FF#\	4cc#X/ 4a#X/	.
8r	.	8ryy	.	(8a#X^\	.	(8e/J	.	(8cc#/J	.	.	.	.	.
=40	=40	=40	=40	=40	=40	=40	=40	=40	=40	=40	=40	=40	=40
*	*	*	*	*	*	*	*	*	*	*	*	*^	*
*	*	*	*	*	*	*	*	*	*	*	*	*	*^	*
8B\	.	8B\yy	.	8b\L)	.	8d/L)	.	8dd\L)	.	4d/ 4B/	4BB\	4dd/ 4b/	4ryy	4ryy	.
8r	.	8ryy	.	8f#\J	.	(8b/J	.	(8dd\J	.	.	.	.	.	.	.
8A\	.	8A\yy	.	8r	.	8cc#\L)	.	8ee\L)	.	4A/	4AA\	4ee/ 4cc#/	4ryy	4a\	.
8r	.	8ryy	.	(8a^\	.	8cc#\J	.	(8ee\J	.	.	.	.	.	.	.
8d\	.	8d\yy	.	8g#\L)	.	8r	.	8ee#X\L)	.	4d/	4D\	4ee#X/	4.b/	4g#\	.
8r	.	8ryy	.	(8g#^\	.	8b\	.	(8ee#\	.	.	.	.	.	.	.
8D\	.	8D\yy	.	8f#\)	.	8r	.	8ff#\)	.	4D/	4DD\	4ff#/)	.	4f#\	.
8r	.	8ryy	.	8a\J 8f#\	.	8a/ 8f#/	.	8ff#\J|	.	.	.	.	8a/	.	.
*	*	*	*	*	*	*	*	*	*	*	*	*	*v	*v	*
=41	=41	=41	=41	=41	=41	=41	=41	=41	=41	=41	=41	=41	=41	=41
*	*	*	*	*	*	*	*	*	*	*	*^	*	*	*
!	!LO:DY:rj	!	!LO:DY:rj	!	!LO:DY:rj	!	!LO:DY:rj	!	!	!	!	!	!	!	!
8C#\	f	8C#\yy	fy	8c#\L	f	8a/L 8f#^/	f	8ff#^\L	f	2c#/ 2A/	(>4C#/	[<1C#/ [<1CC#/	(2ff#/	2.a\ 2.f#\	.
8r	.	8ryy	.	8c#\J	.	8a/J 8f#/	.	8ff#\J	.	.	.	.	.	.	.
8F#\	.	8F#\yy	.	8r	.	8r	.	8r	.	.	4F#/	.	.	.	.
8r	.	8ryy	.	8c#\	.	8a/ 8f#/	.	8ff#\	.	.	.	.	.	.	.
*	*	*	*	*rep	*	*	*	*	*	*	*	*	*	*	*
8A\	.	8A\yy	.	8r	.	8r	.	8r	.	2ryy	4A/	.	4cc#/)	.	.
8r	.	8ryy	.	8c#\	.	8a/ 8f#/	.	8cc#\	.	.	.	.	.	.	.
*	*	*	*	*Xrep	*	*	*	*	*	*	*	*	*	*	*
*	*	*	*	*rep	*	*	*	*	*	*	*	*	*	*	*
8c#\	.	8c#\yy	.	8r	.	8r	.	8r	.	.	4c#/)	.	4a/	4f#\	.
8r	.	8ryy	.	8c#\	.	(8f#/	.	8a/	.	.	.	.	.	.	.
*	*	*	*	*Xrep	*	*	*	*	*	*	*	*	*	*	*
*	*	*	*	*	*	*	*	*	*	*	*v	*v	*	*	*
*	*	*	*	*	*	*	*	*	*	*	*	*v	*v	*
=42	=42	=42	=42	=42	=42	=42	=42	=42	=42	=42	=42	=42	=42
8C#\	>	8C#\yy	>	8c#\L	.	8g#/L)	.	8cc#\L	>	(4C#/	2C#\] 2CC#\]	4.cc#/ 4.a/ 4.f#/	.
8r	.	8ryy	.	8c#\J	.	8a/J	>	8cc#\J	.	.	.	.	.
8F#\	.	8F#\yy	.	8r	.	8r	.	8r	.	4F#/	.	.	.
8r	.	8ryy	.	8c#\	.	8a/	.	8cc#\	.	.	.	8a/ 8f#/	.
8A\	.	8A\yy	.	8r	.	8r	.	8r	.	4A/)	2r	8a/ 8f#/@ 8c#/	.
8r	.	8ryy	.	8f#\	.	8c#/	.	8a/	.	.	.	8r	.
!	!	!	!	!	!	!	!	!	!	!LO:TX:a:i:t=(&colon;pozytyw&colon;)	!	!LO:TX:a:i:t=(pozytyw)	!
8C#/	]	8C#/yy	]	8r	.	8r	.	8r	]	4C#/	.	4f#/ 4A/	.
8r	.	8ryy	.	8A/	.	8c#/	]	8f#/	.	.	.	.	.
!!LO:PB:g=original
=43	=43	=43	=43	=43	=43	=43	=43	=43	=43	=43	=43	=43	=43
!	!LO:DY:rj	!	!LO:DY:rj	!	!LO:DY:rj	!	!LO:DY:rj	!	!LO:DY:rj	!	!	!	!
8BB#X/	p	8BB#X/yy	py	8A/L	p	8d/L	p	8f#/L	p	[1A/ 1F#/	[1BB#X\ [1BBB#X\	[1dd/ [>1f#/ [1d/	.
8r	.	8ryy	.	8A/J	.	8d/J	.	8f#/J	.	.	.	.	.
*rep	*	*repy	*	*	*	*	*	*	*	*	*	*	*
8BB#/	.	8BB#/yy	.	8r	.	8r	.	8r	.	.	.	.	.
8r	.	8ryy	.	8A/	.	8d/	.	8f#/	.	.	.	.	.
*Xrep	*	*Xrep	*	*	*	*	*	*	*	*	*	*	*
*rep	*	*repy	*	*rep	*	*rep	*	*rep	*	*	*	*	*
8BB#/	.	8BB#/yy	.	8r	.	8r	.	8r	.	.	.	.	.
8r	.	8ryy	.	8A/	.	8d/	.	8f#/	.	.	.	.	.
*Xrep	*	*Xrep	*	*Xrep	*	*Xrep	*	*Xrep	*	*	*	*	*
*rep	*	*repy	*	*rep	*	*rep	*	*rep	*	*	*	*	*
8BB#/	.	8BB#/yy	.	8r	.	8r	.	8r	.	.	.	.	.
8r	.	8ryy	.	8A/	.	8d/	.	8f#/	.	.	.	.	.
*Xrep	*	*Xrep	*	*Xrep	*	*Xrep	*	*Xrep	*	*	*	*	*
=44	=44	=44	=44	=44	=44	=44	=44	=44	=44	=44	=44	=44	=44
8BB#X/	.	8BB#X/yy	.	8A/L	.	8d/L	.	(8dd/L	.	2A/] 2F#/	2BB#\] 2BBB#\]	2dd/] 2f#/] 2d/]	.
8r	.	8ryy	.	8A/J	.	8d/J	.	8f#/J)	.	.	.	.	.
*rep	*	*repy	*	*	*	*	*	*	*	*	*	*	*
8BB#/	.	8BB#/yy	.	8r	.	8r	.	8r	.	.	.	.	.
8r	.	8ryy	.	(8A/	.	(8d/	.	(8f#/	.	.	.	.	.
*Xrep	*	*Xrep	*	*	*	*	*	*	*	*	*	*	*
8C#/	.	8C#/yy	.	8G#/L)	.	8c#/L)	.	8e#X/L)	.	2G#/ 2C#/	2C#\ 2CC#\	2e#X/ 2c#/	.
8r	.	8ryy	.	8G#/J	.	8c#/J	.	8e#/J	.	.	.	.	.
*rep	*	*repy	*	*	*	*	*	*	*	*	*	*	*
8C#/	.	8C#/yy	.	8r	.	8r	.	8r	.	.	.	.	.
8r	.	8ryy	.	8B/	.	(8e#X/	.	(8g#/	.	.	.	.	.
*Xrep	*	*Xrep	*	*	*	*	*	*	*	*	*	*	*
=45	=45	=45	=45	=45	=45	=45	=45	=45	=45	=45	=45	=45	=45
[1FF#/	.	8FF#/	.	8A/	.	8f#/)	.	8f#/)|	.	4r	[1FF#\	[1f#/ [>1A/	.
.	.	8r	.	4A/	.	4A/	.	4f#/	.	.	.	.	.
!	!	!	!	!	!	!	!	!	!	!LO:TX:a:i:t=(&colon;manuał&colon;)	!	!	!
.	.	4F#\	.	.	.	.	.	.	.	(4F#/	.	.	.
.	.	.	.	4A/	.	4A/	.	4f#/	.	.	.	.	.
.	.	4E#X\	.	.	.	.	.	.	.	4E#X/	.	.	.
.	.	.	.	4A/	.	4A/	.	4f#/	.	.	.	.	.
.	.	4En\	.	.	.	.	.	.	.	4En/	.	.	.
.	.	.	.	[8A/	.	8A/	.	[>8f#/	.	.	.	.	.
=46	=46	=46	=46	=46	=46	=46	=46	=46	=46	=46	=46	=46	=46
2FF#/_	.	4D#X\	.	8A/]	.	8A/	.	8f#/]	.	4D#X/	1FF#\]	2f#/_ 2A/_	.
.	.	.	.	4A/	.	4A/	.	4f#/	.	.	.	.	.
.	.	4Dn\	.	.	.	.	.	.	.	4Dn/	.	.	.
!	!	!	!	!	!	!	!	!L	!	!	!	!	!
.	.	.	.	8A/	.	8A/	.	8f#/|	.	.	.	.	.
8FF#/]	.	8C#/	.	8F#/	.	8A/	.	8f#/|	.	4C#/	.	8f#/] 8A/]	.
8r	.	8r	.	8r	.	8r	.	8r	.	.	.	8r	.
8FF#/	.	8AA/	.	8F#/	.	8A/	.	8c#/	.	4AA/)	.	8c#/ 8A/	.
8r	.	8r	.	8r	.	8ryy	.	8r	.	.	.	8r	.
=47	=47	=47	=47	=47	=47	=47	=47	=47	=47	=47	=47	=47	=47
1FF#/;	.	1FF#/;	.	1C#/;	.	1f#/ 1A/;	.	1f#/ 1A/;	.	1C#/;	1FF#\	1f#/ 1A/;	.
*	*	*	*	*	*	*	*	*	*	*v	*v	*	*
==	==	==	==	==	==	==	==	==	==	==	==	==
*-	*-	*-	*-	*-	*-	*-	*-	*-	*-	*-	*-	*-
!!!system-decoration: ({s1,s2},s3,s4,s5,s6,s7)
!!!RDF**kern: @ = marked note, color=red
!!!RDF**kern: > = above
!!!RDF**kern: < = below
!!!RDF**dynam: < = crescendo
!!!RDF**kern: | = vertical stroke
!!!EED: Andrzej Borzym
!!!EEV: 2021-07-12
!!!ENC: Krzysztof Stępień
!!!END: 2021-07-08
